X:11
T:Donnybrook Fair
R:jig
M:6/8
L:1/8
K:G
DGG GAG | ABe edB | ABA BGA | BAG  EGE |
DGG GAG | ABe edB | ABA BGA | BAG F G2 :|
fgf efe | deg edB | ABe efe | dBe e e2 |
fgg gfe | deg edB | ABA BGA | BAG F G2 :|
